X: 13900
T: Fox On The Town, The
R: reel
M: 4/4
K: Gmajor
|:GEDG EDB,A,|G,2B,G, DG,B,D|GEDG E3F|G2FG EFGA|
BE E/E/D EDB,A,|G,2B,G, DG,B,D|EFGB AFDF|1 FGGF G2EF:|2 FGGF G2GA||
|:BE E/E/E BEGE|DB, B,/B,/B, DEGA|BE E/E/E BEGE|DEGB A2BA|
G2GE DEDB,|G,B,DG EDB,D|EFGB AFDF|1 FGGF G2GA:|2 FGGF G3z||
|:gedg edBA|G2BG dGBd|gedg e3f|g2fg efga|
be e/e/e edBA|G2BG dGBd|efge afdf|1 fggf g2ef:|2 fggf g2ga||
|:be e/e/e bege|dB B/B/B dega|be e/e/e bege|degb a2ba|
g2ge dedB|GBdg edBd|efge afdf|1 fggf g2ga:|2 fggf g2ef||

